X: 96
T:Sadlors Baloon. JC.096
T:Saddler's Balloon,aka. JC.096
M:6/8
L:1/8
Q:120
S:John Clare,Poet,Helpston. (1793-1864)
R:Jig
O:England
A:Northamptonshire
N:Saddler was a noted balloonist at the beginning of the 19thC, giving
N:public demonstrations of his flying skills all over the country. CGP.
Z:vmp.P. Headford
K:D
D2F"crot"A3|d2fd2 "qu's"A/F/|G2Be2d|cBA GFE|!
D2F Ad2|f2dA2F|G2e cBA|"crots"c3d3:|!
|:A2ce2c|A2df2d|A2eg2e|(fed) (cBA)|!
d2Ae2A|f2Ag2e|(fed) (cBA)|"crots"d3d3:|]
